Flat-Remix-Blue-Dark/status/scalable/16/package-installed-updated.svg

<svg xmlns="http://www.w3.org/2000/svg" width="36pt" height="36pt" version="1.1" viewBox="0 0 36 36"> <g> <path style="fill:rgb(21.176%,48.235%,94.117%)" d="M 36 34.195312 L 36 1.796875 C 36 0.800781 35.195312 -0.00390625 34.199219 -0.00390625 L 1.800781 -0.00390625 C 0.804688 -0.00390625 0 0.800781 0 1.796875 L 0 34.195312 C 0 35.1875 0.804688 35.996094 1.800781 35.996094 L 34.199219 35.996094 C 35.195312 35.996094 36 35.1875 36 34.195312 Z M 36 34.195312"/> <path style="fill:rgb(100.000%,100.000%,100.000%)" d="M 29.027344 7.910156 L 16.296875 20.636719 L 9.933594 14.273438 L 6.75 17.453125 L 16.296875 27 L 19.476562 23.816406 L 32.207031 11.09375 Z M 29.027344 7.910156"/> </g> </svg>

<svg width="16" height="16" version="1.1" viewBox="0 0 12 12" xmlns="http://www.w3.org/2000/svg"><g transform="matrix(.33333 0 0 .33333 6e-8 .0013021)"><path d="m36 34.195v-32.398c0-0.99609-0.80469-1.8008-1.8008-1.8008h-32.398c-0.99609 0-1.8008 0.80469-1.8008 1.8008v32.398c0 0.99219 0.80469 1.8008 1.8008 1.8008h32.398c0.99609 0 1.8008-0.80859 1.8008-1.8008z" fill="#357af0"/><path d="m29.027 7.9102-12.73 12.727-6.3633-6.3633-3.1836 3.1797 9.5469 9.5469 3.1797-3.1836 12.73-12.723z" fill="#fff"/></g></svg>
